src/svg/device-phone.svg

<svg version="1.2" baseProfile="tiny" xmlns="http://www.w3.org/2000/svg" width="24" height="24" viewBox="0 0 24 24"><g><path d="M15 3h-7c-1.654 0-3 1.346-3 3v12c0 1.654 1.346 3 3 3h7c1.654 0 3-1.346 3-3v-12c0-1.654-1.346-3-3-3zm1 15c0 .551-.449 1-1 1h-7c-.551 0-1-.449-1-1v-12c0-.551.449-1 1-1h7c.551 0 1 .449 1 1v12zM14 6h-5c-.55 0-1 .45-1 1v9c0 .55.45 1 1 1h1.5c0 .553.448 1 1 1s1-.447 1-1h1.5c.55 0 1-.45 1-1v-9c0-.55-.45-1-1-1zm0 10h-5v-9h5v9z"/></g></svg>

<?xml version="1.0" encoding="iso-8859-1"?>
<!-- Generator: Adobe Illustrator 16.2.1, SVG Export Plug-In . SVG Version: 6.00 Build 0)  -->
<svg version="1.2" baseProfile="tiny" xmlns="http://www.w3.org/2000/svg" xmlns:xlink="http://www.w3.org/1999/xlink" x="0px"
	 y="0px" width="24px" height="24px" viewBox="0 0 24 24" xml:space="preserve">
<g id="Layer_1">
	<g>
		<path d="M15,3H8C6.346,3,5,4.346,5,6v12c0,1.654,1.346,3,3,3h7c1.654,0,3-1.346,3-3V6C18,4.346,16.654,3,15,3z M16,18
			c0,0.551-0.449,1-1,1H8c-0.551,0-1-0.449-1-1V6c0-0.551,0.449-1,1-1h7c0.551,0,1,0.449,1,1V18z"/>
		<path d="M14,6H9C8.45,6,8,6.45,8,7v9c0,0.55,0.45,1,1,1h1.5c0,0.553,0.448,1,1,1s1-0.447,1-1H14c0.55,0,1-0.45,1-1V7
			C15,6.45,14.55,6,14,6z M14,16H9V7h5V16z"/>
	</g>
</g>
<g id="nyt_x5F_exporter_x5F_info" display="none">
</g>
</svg>
